src/lib/images/exchanges/mercatox.svg

<svg viewBox="0 0 2207 200" fill="none" xmlns="http://www.w3.org/2000/svg">
<path d="M0.000432426 103.625V7.29745L40.8872 8.7484L60.2359 38.7414C97.6582 96.7509 122.471 136.694 122.482 138.943C122.488 140.192 125.764 146.147 129.762 152.173L137.032 163.131L146.622 147.618C156.149 132.208 183.149 89.4834 217.403 35.6172L235.284 7.4988H274.934V199.952H237.443V141.217C237.443 107.744 236.468 82.4821 235.176 82.4821C233.93 82.4821 221.122 101.321 206.715 124.347C192.307 147.372 175.614 173.728 169.616 182.917L158.713 199.623L117.956 199.955L101.655 175.586C92.6901 162.183 76.317 136.595 65.2689 118.725C54.2219 100.855 44.0809 84.5467 42.7333 82.485C41.0957 79.9786 40.2349 98.8269 40.1367 139.345L39.9898 199.955H0L0.000432426 103.625ZM335.965 196.589C335.244 194.712 334.994 185.985 335.409 177.194L336.162 161.21H568.602V198.701L452.938 199.351C357.057 199.889 337.048 199.422 335.962 196.588L335.965 196.589ZM609.851 99.9759V0H854.789V42.4893H652.332V199.943H609.843L609.851 99.9759ZM884.786 99.9759V0H1127.23V42.6013L927.65 41.241L926.213 48.4268C925.423 52.3788 924.777 79.0915 924.777 107.787V159.961H1127.23V199.951H884.79L884.786 99.9759ZM1164.72 141.216V82.4806H1399.67V199.952H1164.72V141.216ZM1357.59 142.435L1356.76 124.899L1203.45 126.22L1202.69 139.668C1202.27 147.065 1202.51 154.657 1203.23 156.539C1204.31 159.333 1218.67 159.962 1281.48 159.967L1358.42 159.972L1357.58 142.435L1357.59 142.435ZM1534.62 121.221V42.4908H1442.15V0.00145944H1667.29L1665.84 41.241L1574.61 42.6041V199.959H1534.62L1534.62 121.221ZM1707.08 100V0H1944.58L1943.28 198.702L1707.08 200L1707.08 100ZM1904.54 101.226V42.4908H1749.58V159.962H1904.54V101.226ZM1984.93 197.472C1985.39 196.109 1998.14 182.313 2013.26 166.816C2041.27 138.111 2067.54 108.836 2069.13 104.556C2070.06 102.057 2062.26 93.2649 2012.79 41.02C1996.04 23.3262 1982.82 8.36439 1983.41 7.77209C1985.14 6.04806 2017.59 5.11741 2025.15 6.57476C2029.56 7.42353 2034.67 11.6661 2039.31 18.3227C2049.89 33.4914 2091.33 74.9804 2095.9 74.9804C2099.64 74.9804 2128.42 47.2389 2151.98 20.9073L2163.24 8.33338L2183.23 6.92919C2194.22 6.15694 2204.66 6.07613 2206.43 6.74919C2209.55 7.93945 2185.98 34.8789 2141.35 81.1176C2130.7 92.1567 2121.98 102.165 2121.98 103.358C2121.98 105.981 2152.21 139.361 2183.84 171.678C2196.56 184.667 2206.96 196.342 2206.96 197.622C2206.96 198.903 2196.84 199.95 2184.47 199.95C2172.1 199.95 2161.97 199.042 2161.97 197.931C2161.97 195.397 2100.43 134.06 2096.59 132.762C2095.03 132.236 2078.91 147.14 2060.76 165.879L2027.75 199.951H2005.93C1992.6 199.951 1984.43 198.986 1984.94 197.472L1984.93 197.472ZM336.004 121.623C335.287 119.754 335.037 110.464 335.448 100.978L336.196 83.7304L570.095 82.431L569.369 103.076L568.643 123.722L452.978 124.372C357.35 124.909 337.087 124.429 336.01 121.625L336.004 121.623ZM336.637 40.8485C335.707 39.919 334.946 30.3473 334.946 19.5797V0.00145944H570.093L568.641 41.241L453.486 41.89C390.15 42.2471 337.571 41.7766 336.64 40.8485H336.637ZM1164.74 21.2702V0.00145944H1399.89L1398.44 41.241L1164.75 42.539L1164.74 21.2702Z" fill="white"/>
</svg>

<svg fill="none" viewBox="0 0 2207 200" xmlns="http://www.w3.org/2000/svg"><path d="M0 103.625V7.297l40.887 1.451 19.349 29.993c37.422 58.01 62.235 97.953 62.246 100.202.006 1.249 3.282 7.204 7.28 13.23l7.27 10.958 9.59-15.513c9.527-15.41 36.527-58.135 70.781-112l17.881-28.12h39.65v192.454h-37.491v-58.735c0-33.473-.975-58.735-2.267-58.735-1.246 0-14.054 18.839-28.461 41.865-14.408 23.025-31.101 49.381-37.099 58.57l-10.903 16.706-40.757.332-16.301-24.369c-8.965-13.403-25.338-38.991-36.386-56.861-11.047-17.87-21.188-34.178-22.536-36.24-1.637-2.506-2.498 16.342-2.596 56.86l-.147 60.61H0zm335.965 92.964c-.721-1.877-.971-10.604-.556-19.395l.753-15.984h232.44v37.491l-115.664.65c-95.881.538-115.89.071-116.976-2.763zm273.886-96.613V0h244.938v42.49H652.332v157.453h-42.489zm274.935 0V0h242.444v42.601l-199.58-1.36-1.437 7.186c-.79 3.952-1.436 30.664-1.436 59.36v52.174h202.453v39.99H884.79zm279.934 41.24V82.481h234.95v117.471h-234.95zm192.87 1.219l-.83-17.536-153.31 1.321-.76 13.448c-.42 7.397-.18 14.989.54 16.871 1.08 2.794 15.44 3.423 78.25 3.428l76.94.005-.84-17.537zm177.03-21.214v-78.73h-92.47V0h225.14l-1.45 41.24-91.23 1.363V199.96h-39.99v-78.738zM1707.08 100V0h237.5l-1.3 198.702-236.2 1.298zm197.46 1.226V42.491h-154.96v117.471h154.96zm80.39 96.246c.46-1.363 13.21-15.159 28.33-30.656 28.01-28.705 54.28-57.98 55.87-62.26.93-2.499-6.87-11.291-56.34-63.536-16.75-17.694-29.97-32.656-29.38-33.248 1.73-1.724 34.18-2.655 41.74-1.197 4.41.849 9.52 5.091 14.16 11.748 10.58 15.168 52.02 56.657 56.59 56.657 3.74 0 32.52-27.741 56.08-54.073l11.26-12.574 19.99-1.404c10.99-.772 21.43-.853 23.2-.18 3.12 1.19-20.45 28.13-65.08 74.369-10.65 11.039-19.37 21.047-19.37 22.24 0 2.623 30.23 36.003 61.86 68.32 12.72 12.989 23.12 24.664 23.12 25.944 0 1.281-10.12 2.328-22.49 2.328s-22.5-.908-22.5-2.019c0-2.534-61.54-63.871-65.38-65.169-1.56-.526-17.68 14.378-35.83 33.117l-33.01 34.072h-21.82c-13.33 0-21.5-.965-20.99-2.479zM336.004 121.623c-.717-1.869-.967-11.159-.556-20.645l.748-17.248 233.899-1.299-.726 20.645-.726 20.646-115.665.65c-95.628.537-115.891.057-116.968-2.747zm.633-80.775c-.93-.929-1.691-10.5-1.691-21.268V0h235.147l-1.452 41.24-115.155.649c-63.336.357-115.915-.113-116.846-1.041zM1164.74 21.27V.001h235.15l-1.45 41.24-233.69 1.298z" fill="#fff"/></svg>
